X: 22
T:Queen of the Fair
R:Jig
Z:Added by Alf Warnock
M:6/8
L:1/8
K:D
AG|:FEF DA,D|DFA dAF|GBG FGA|BEE E2G|
FEF DA,D|DFA dAF|GFG BAG|FDD D2g:|
|:fdf ecA|Bcd AFD|GBG FGA|BEE E2g|
fdf ecA|Bcd AFD|EFG BAG|FDD D2z:|
Add fdd|add fdd|Ace geg|fdf ecA|[1 Add fdd|
add fdd|EFG BAG|FDD D2B:|[2 afa geg|fdf ecA|
EFG BAG|FDD D2|]

